X:354
T:Tom Sullivan's
R:polka 32
M:2/4
L:1/8
K:D
"D"FG AB|"D"BA AF/G/|"D"Ad "A"dc|"G     A"d2 "D"d>e|
"D"fd ed|"D"c/B/A AA/B/|"D"c/B/A "A"GE|1"G     A"D2 "D"D2:|2"G     A"D2 "D"d>e||
"D"fd "A"ed|"D"c/B/A A>e|"D"fd "A"ec|"G       A"d2 "D"d>e|
"D"fd ed|"D"c/B/A "G"A"A"A/B/|"D"c/B/A "A"GE|"G      A"D2 "D"d>e|

